public/theme/icons/home.svg

<svg width="24" height="20" viewBox="0 0 24 20" fill="none" xmlns="http://www.w3.org/2000/svg">
    <mask id="path-1-inside-1_215_4295" fill="white">
        <path fill-rule="evenodd" clip-rule="evenodd"
              d="M10.5686 0.288484C10.8883 0.0503192 11.3012 -0.0382612 11.6939 0.0149047C11.9472 0.046174 12.1921 0.137556 12.3983 0.291153L15.5519 2.64094C15.6601 2.72157 15.814 2.64434 15.814 2.50938V0.24143C15.814 0.150821 15.8875 0.0773676 15.9781 0.0773676H18.4765C18.5671 0.0773676 18.6406 0.150821 18.6406 0.24143V4.85995C18.6406 4.91177 18.6651 4.96054 18.7066 4.99151L22.538 7.84626C23.1192 8.27929 23.1719 9.04285 22.6558 9.55172C22.1398 10.0606 21.2503 10.1221 20.6691 9.68903L19.7521 9.00579C19.6439 8.92515 19.49 9.00239 19.49 9.13735V19.5605C19.49 19.7947 19.3002 19.9845 19.0661 19.9845H14.2609C14.0267 19.9845 13.8369 19.7947 13.8369 19.5605V13.3887C13.8369 13.2981 13.7635 13.2246 13.6728 13.2246H9.47838C9.38777 13.2246 9.31432 13.2981 9.31432 13.3887V19.5605C9.31432 19.7947 9.12449 19.9845 8.89033 19.9845H4.08516C3.851 19.9845 3.66118 19.7947 3.66118 19.5605V8.99734C3.66118 8.86238 3.50731 8.78514 3.39909 8.86578L2.34177 9.65359C1.76059 10.0866 0.871096 10.0252 0.35502 9.51628C-0.161057 9.00742 -0.108284 8.24386 0.472889 7.81082L10.5686 0.288484Z"/>
    </mask>
    <path d="M11.6939 0.0149047L11.4958 1.47812L11.5044 1.47928L11.513 1.48034L11.6939 0.0149047ZM10.5686 0.288484L11.4508 1.47251L11.4508 1.47251L10.5686 0.288484ZM12.3983 0.291153L13.2805 -0.892876L13.2805 -0.892877L12.3983 0.291153ZM22.538 7.84626L21.6558 9.03029L21.6558 9.03029L22.538 7.84626ZM22.6558 9.55172L21.6191 8.50031L21.6191 8.50032L22.6558 9.55172ZM20.6691 9.68903L21.5513 8.505L21.5513 8.505L20.6691 9.68903ZM2.34177 9.65359L3.22399 10.8376L3.22399 10.8376L2.34177 9.65359ZM0.472889 7.81082L1.35511 8.99485L1.35511 8.99485L0.472889 7.81082ZM18.7066 4.99151L17.8244 6.17554L18.7066 4.99151ZM3.39909 8.86578L2.51687 7.68175L3.39909 8.86578ZM19.7521 9.00579L18.8699 10.1898L19.7521 9.00579ZM15.5519 2.64094L14.6697 3.82497L15.5519 2.64094ZM11.892 -1.44831C11.1634 -1.54695 10.3517 -1.39128 9.68639 -0.895544L11.4508 1.47251C11.4363 1.48335 11.4311 1.48233 11.4422 1.47971C11.4475 1.47846 11.4553 1.47719 11.4652 1.47673C11.475 1.47628 11.4855 1.47672 11.4958 1.47812L11.892 -1.44831ZM13.2805 -0.892877C12.8496 -1.21393 12.3573 -1.39097 11.8748 -1.45053L11.513 1.48034C11.524 1.4817 11.5298 1.48379 11.5306 1.48408C11.531 1.48426 11.5254 1.48212 11.5161 1.47518L13.2805 -0.892877ZM16.4341 1.45691L13.2805 -0.892876L11.5161 1.47518L14.6697 3.82497L16.4341 1.45691ZM17.2906 2.50938V0.24143H14.3374V2.50938H17.2906ZM15.9781 1.55393H18.4765V-1.3992H15.9781V1.55393ZM17.164 0.24143V4.85995H20.1171V0.24143H17.164ZM23.4202 6.66223L19.5888 3.80748L17.8244 6.17554L21.6558 9.03029L23.4202 6.66223ZM23.6926 10.6031C24.8528 9.45911 24.7268 7.63576 23.4202 6.66223L21.6558 9.03029C21.6196 9.00338 21.5453 8.91603 21.5353 8.77236C21.5254 8.62868 21.5871 8.53194 21.6191 8.50031L23.6926 10.6031ZM19.7869 10.8731C20.9527 11.7417 22.6573 11.6239 23.6926 10.6031L21.6191 8.50032C21.6309 8.48874 21.6364 8.4879 21.629 8.49105C21.621 8.49446 21.6056 8.49912 21.5851 8.50054C21.5646 8.50196 21.5487 8.49946 21.5403 8.49718C21.5325 8.49507 21.5381 8.49515 21.5513 8.505L19.7869 10.8731ZM18.8699 10.1898L19.7869 10.8731L21.5513 8.505L20.6344 7.82176L18.8699 10.1898ZM20.9666 19.5605V9.13735H18.0135V19.5605H20.9666ZM19.0661 21.4611C20.1157 21.4611 20.9666 20.6102 20.9666 19.5605H18.0135C18.0135 18.9792 18.4847 18.5079 19.0661 18.5079V21.4611ZM14.2609 21.4611H19.0661V18.5079H14.2609V21.4611ZM12.3603 19.5605C12.3603 20.6102 13.2113 21.4611 14.2609 21.4611V18.5079C14.8422 18.5079 15.3135 18.9792 15.3135 19.5605H12.3603ZM12.3603 13.3887V19.5605H15.3135V13.3887H12.3603ZM9.47838 14.7012H13.6728V11.7481H9.47838V14.7012ZM10.7909 19.5605V13.3887H7.83775V19.5605H10.7909ZM8.89033 21.4611C9.93997 21.4611 10.7909 20.6102 10.7909 19.5605H7.83775C7.83775 18.9792 8.30901 18.5079 8.89033 18.5079V21.4611ZM4.08516 21.4611H8.89033V18.5079H4.08516V21.4611ZM2.18461 19.5605C2.18461 20.6102 3.03552 21.4611 4.08516 21.4611V18.5079C4.66648 18.5079 5.13774 18.9792 5.13774 19.5605H2.18461ZM2.18461 8.99734V19.5605H5.13774V8.99734H2.18461ZM3.22399 10.8376L4.28131 10.0498L2.51687 7.68175L1.45954 8.46956L3.22399 10.8376ZM-0.681697 10.5677C0.353553 11.5885 2.05815 11.7063 3.22399 10.8376L1.45954 8.46956C1.47276 8.45971 1.47834 8.45964 1.4706 8.46174C1.46222 8.46403 1.4463 8.46652 1.42579 8.4651C1.40527 8.46368 1.38985 8.45903 1.38186 8.45561C1.37449 8.45246 1.38 8.4533 1.39174 8.46488L-0.681697 10.5677ZM-0.409333 6.6268C-1.7159 7.60032 -1.84192 9.42367 -0.681697 10.5677L1.39174 8.46488C1.42381 8.4965 1.48546 8.59325 1.47553 8.73692C1.4656 8.8806 1.39123 8.96794 1.35511 8.99485L-0.409333 6.6268ZM9.68639 -0.895544L-0.409333 6.6268L1.35511 8.99485L11.4508 1.47251L9.68639 -0.895544ZM17.164 4.85995C17.164 5.37816 17.4089 5.86591 17.8244 6.17554L19.5888 3.80748C19.9213 4.05518 20.1171 4.44538 20.1171 4.85995H17.164ZM5.13774 8.99734C5.13774 7.64775 3.59906 6.8754 2.51687 7.68175L4.28131 10.0498C3.41556 10.6949 2.18461 10.077 2.18461 8.99734H5.13774ZM20.6344 7.82176C19.5522 7.01541 18.0135 7.78777 18.0135 9.13735H20.9666C20.9666 10.217 19.7357 10.8349 18.8699 10.1898L20.6344 7.82176ZM9.47838 11.7481C8.57229 11.7481 7.83775 12.4826 7.83775 13.3887H10.7909C10.7909 14.1136 10.2033 14.7012 9.47838 14.7012V11.7481ZM18.4765 1.55393C17.7516 1.55393 17.164 0.966305 17.164 0.24143H20.1171C20.1171 -0.664663 19.3826 -1.3992 18.4765 -1.3992V1.55393ZM15.3135 13.3887C15.3135 12.4826 14.5789 11.7481 13.6728 11.7481V14.7012C12.948 14.7012 12.3603 14.1136 12.3603 13.3887H15.3135ZM17.2906 0.24143C17.2906 0.966303 16.703 1.55393 15.9781 1.55393V-1.3992C15.072 -1.3992 14.3374 -0.664661 14.3374 0.24143H17.2906ZM14.6697 3.82497C15.7519 4.63131 17.2906 3.85895 17.2906 2.50938H14.3374C14.3374 1.42972 15.5684 0.81183 16.4341 1.45691L14.6697 3.82497Z"
          fill="url(#paint0_linear_215_4295)" mask="url(#path-1-inside-1_215_4295)"/>
    <path d="M15.4765 2.85993L17.6549 3.30358L17.4365 4.42974L19.2912 5.70332L18.5415 6.70922L14.7268 3.86584L15.4765 2.85993Z"
          fill="url(#paint1_linear_215_4295)"/>
    <defs>
        <linearGradient id="paint0_linear_215_4295" x1="6.9435e-08" y1="11.4911" x2="23.0109" y2="11.4911"
                        gradientUnits="userSpaceOnUse">
            <stop stop-color="#2036FF"/>
            <stop offset="1" stop-color="#C348B0"/>
        </linearGradient>
        <linearGradient id="paint1_linear_215_4295" x1="15.2857" y1="3.11592" x2="19.1004" y2="5.95931"
                        gradientUnits="userSpaceOnUse">
            <stop stop-color="#8C42CB"/>
            <stop offset="0.525" stop-color="#9E44C2"/>
            <stop offset="1" stop-color="#A545BF"/>
        </linearGradient>
    </defs>
</svg>

<svg xmlns="http://www.w3.org/2000/svg" width="24" height="20" fill="none">
    <mask id="b" fill="#fff">
        <path fill-rule="evenodd"
              d="M10.569.288c.32-.238.732-.326 1.125-.273.253.031.498.123.704.276l3.154 2.35c.108.08.262.003.262-.132V.241c0-.09.073-.164.164-.164h2.499c.09 0 .164.074.164.164V4.86c0 .052.024.1.066.132l3.831 2.854c.581.433.634 1.197.118 1.706s-1.406.57-1.987.137l-.917-.683a.164.164 0 0 0-.262.131v10.424c0 .234-.19.424-.424.424h-4.805a.424.424 0 0 1-.424-.424v-6.172a.164.164 0 0 0-.164-.164H9.478a.164.164 0 0 0-.164.164v6.172c0 .234-.19.424-.424.424H4.085a.424.424 0 0 1-.424-.424V8.997a.164.164 0 0 0-.262-.131l-1.057.788c-.581.433-1.47.371-1.987-.138-.516-.509-.463-1.272.118-1.705z"
              clip-rule="evenodd"/>
    </mask>
    <path fill="url(#a)"
          d="m11.694.015-.198 1.463.008.001.009.001zm-1.125.273.882 1.185zm1.83.003.882-1.184zm10.139 7.555-.882 1.184zm.118 1.706L21.619 8.5zm-1.987.137.882-1.184zM2.342 9.654l.882 1.184zM.472 7.81l.883 1.184zm18.235-2.82-.883 1.185zM3.399 8.867l-.882-1.184zm16.353.14-.882 1.184zm-4.2-6.365-.882 1.184zm-3.66-4.09a3.02 3.02 0 0 0-2.206.553l1.765 2.369q-.024.013-.009.007l.023-.003.03.001zm1.389.556a2.96 2.96 0 0 0-1.406-.558l-.362 2.931.018.004q0 0-.015-.009zm3.153 2.35L13.28-.893l-1.764 2.368 3.154 2.35zm.857 1.052V.241h-2.954V2.51zm-1.313-.955h2.499V-1.4h-2.499zM17.164.24V4.86h2.953V.241zm6.256 6.421L19.59 3.807l-1.765 2.369 3.832 2.854zm.273 3.941c1.16-1.144 1.034-2.967-.273-3.94L21.656 9.03a.36.36 0 0 1-.12-.258.36.36 0 0 1 .083-.272zm-3.906.27c1.166.869 2.87.75 3.906-.27L21.619 8.5q.02-.015.01-.009a.1.1 0 0 1-.044.01.1.1 0 0 1-.045-.004q-.01-.005.011.008zm-.917-.683.917.683 1.764-2.368-.917-.683zm2.097 9.37V9.138h-2.953v10.424zm-1.9 1.901a1.9 1.9 0 0 0 1.9-1.9h-2.953c0-.582.47-1.053 1.052-1.053zm-4.806 0h4.805v-2.953h-4.805zm-1.9-1.9a1.9 1.9 0 0 0 1.9 1.9v-2.953c.581 0 1.053.471 1.053 1.053zm0-6.172v6.172h2.952v-6.172zM9.477 14.7h4.195v-2.953H9.478zm1.313 4.86v-6.172H7.838v6.172zm-1.9 1.9a1.9 1.9 0 0 0 1.9-1.9H7.838c0-.582.471-1.053 1.052-1.053zm-4.806 0H8.89v-2.953H4.085zm-1.9-1.9c0 1.05.85 1.9 1.9 1.9v-2.953c.581 0 1.053.471 1.053 1.053zm0-10.564v10.564h2.953V8.997zm1.039 1.84 1.057-.787-1.764-2.368-1.057.788zm-3.906-.27c1.036 1.021 2.74 1.14 3.906.27L1.46 8.47q.02-.013.01-.008a.1.1 0 0 1-.044.003.1.1 0 0 1-.044-.01c-.008-.003-.002-.002.01.01zm.273-3.94c-1.307.973-1.433 2.797-.273 3.94l2.074-2.102a.36.36 0 0 1 .084.272.36.36 0 0 1-.12.258zM9.686-.896-.409 6.627l1.764 2.368 10.096-7.522zm7.478 5.756c0 .518.245 1.006.66 1.316l1.765-2.369c.332.248.528.638.528 1.053zM5.138 8.997c0-1.35-1.539-2.122-2.621-1.315L4.28 10.05c-.865.645-2.096.027-2.096-1.053zm15.496-1.175c-1.082-.807-2.62-.034-2.62 1.315h2.953c0 1.08-1.231 1.698-2.097 1.053zM9.478 11.748a1.64 1.64 0 0 0-1.64 1.64h2.953c0 .726-.588 1.313-1.313 1.313zm8.999-10.194A1.31 1.31 0 0 1 17.164.24h2.953a1.64 1.64 0 0 0-1.64-1.64zm-3.164 11.835a1.64 1.64 0 0 0-1.64-1.64V14.7a1.313 1.313 0 0 1-1.313-1.312zM17.292.24c0 .725-.588 1.313-1.313 1.313V-1.4a1.64 1.64 0 0 0-1.64 1.64zM14.67 3.825c1.082.806 2.62.034 2.62-1.316h-2.953c0-1.08 1.231-1.697 2.097-1.052z"
          mask="url(#b)"/>
    <path fill="url(#c)" d="m15.477 2.86 2.178.444-.219 1.126 1.855 1.273-.75 1.006-3.814-2.843z"/>
    <defs>
        <linearGradient id="a" x1="0" x2="23.011" y1="11.491" y2="11.491" gradientUnits="userSpaceOnUse">
            <stop stop-color="#2036FF"/>
            <stop offset="1" stop-color="#C348B0"/>
        </linearGradient>
        <linearGradient id="c" x1="15.286" x2="19.1" y1="3.116" y2="5.959" gradientUnits="userSpaceOnUse">
            <stop stop-color="#8C42CB"/>
            <stop offset=".525" stop-color="#9E44C2"/>
            <stop offset="1" stop-color="#A545BF"/>
        </linearGradient>
    </defs>
</svg>
